svg/color/crcl.svg

<?xml version="1.0" encoding="UTF-8" ?>
<!DOCTYPE svg PUBLIC "-//W3C//DTD SVG 1.1//EN" "http://www.w3.org/Graphics/SVG/1.1/DTD/svg11.dtd">
<svg width="250pt" height="228pt" viewBox="0 0 250 228" version="1.1" xmlns="http://www.w3.org/2000/svg">
<g id="#ffffffff">
<path fill="#ffffff" opacity="1.00" d=" M 0.00 0.00 L 250.00 0.00 L 250.00 228.00 L 0.00 228.00 L 0.00 0.00 M 103.94 11.73 C 107.17 15.93 111.32 19.31 114.98 23.12 C 114.66 26.70 113.71 30.18 113.05 33.71 C 110.82 33.34 109.30 31.62 107.78 30.11 C 102.81 25.05 97.72 20.10 92.78 15.01 C 85.20 17.06 78.10 20.68 71.35 24.64 C 71.00 26.61 73.90 27.60 74.94 29.09 C 82.88 37.28 91.05 45.26 98.98 53.46 C 115.24 45.77 134.77 45.94 151.38 52.54 C 152.42 53.10 153.33 52.97 154.12 52.16 C 163.09 43.00 172.38 34.16 181.32 24.97 C 174.27 21.02 167.03 17.15 159.20 15.00 C 154.09 20.30 148.80 25.41 143.65 30.66 C 142.33 32.04 140.83 33.33 138.93 33.80 C 138.33 30.40 137.57 27.04 136.63 23.73 C 140.19 19.51 144.63 16.11 148.03 11.76 C 140.77 10.36 133.39 9.56 126.00 9.33 C 118.60 9.53 111.22 10.40 103.94 11.73 M 41.25 51.87 C 50.55 60.80 59.34 70.29 68.81 79.04 C 74.09 70.58 81.42 63.48 89.77 58.08 C 80.47 49.11 71.74 39.52 62.11 30.91 C 54.29 36.95 47.14 43.91 41.25 51.87 M 189.26 30.92 C 180.36 40.10 171.20 49.03 162.17 58.08 C 170.52 63.47 177.84 70.57 183.11 79.01 C 192.60 70.28 201.38 60.78 210.69 51.85 C 204.62 43.93 197.73 36.31 189.26 30.92 M 25.37 82.03 C 31.01 87.59 36.60 93.20 42.20 98.79 C 43.27 99.73 43.76 101.07 44.24 102.37 C 40.78 103.14 37.31 103.86 33.83 104.56 C 30.08 100.74 26.18 97.06 22.54 93.13 C 19.09 107.69 19.15 123.15 22.53 137.72 C 26.16 133.73 30.11 130.07 33.87 126.20 C 37.49 126.91 41.16 127.49 44.66 128.69 C 39.05 136.10 31.64 141.94 25.41 148.83 C 27.89 156.52 31.48 163.78 35.55 170.73 C 40.92 165.07 46.43 159.52 52.28 154.35 C 55.95 150.19 59.81 146.22 63.76 142.33 C 56.15 125.30 56.51 105.22 63.73 88.12 C 54.29 78.89 44.99 69.52 35.71 60.12 C 31.18 66.85 28.03 74.40 25.37 82.03 M 66.09 154.07 C 57.84 162.42 49.48 170.65 41.20 178.97 C 47.21 186.85 54.30 193.85 62.11 199.95 C 71.49 191.06 80.35 181.64 89.68 172.70 C 81.46 167.18 74.09 160.23 68.85 151.78 C 67.89 152.49 66.95 153.23 66.09 154.07 M 183.21 151.62 C 178.05 159.80 171.09 166.87 162.96 172.10 C 164.55 174.44 166.24 176.74 168.29 178.72 C 175.20 185.51 181.98 192.43 188.88 199.23 C 189.69 200.43 190.80 199.06 191.53 198.57 C 198.72 192.88 205.17 186.26 210.73 178.98 C 201.54 169.88 192.54 160.58 183.21 151.62 M 70.85 205.86 C 77.78 209.87 85.00 213.53 92.70 215.81 C 97.24 210.97 102.03 206.37 106.67 201.63 C 108.50 199.81 110.30 197.73 112.89 197.01 C 113.77 200.40 114.50 203.82 115.35 207.21 C 111.45 211.09 107.25 214.70 103.80 219.00 C 118.40 221.95 133.50 221.98 148.11 219.00 C 144.86 214.91 140.69 211.67 137.28 207.74 C 136.79 204.13 138.47 200.57 138.94 197.00 C 141.92 197.66 143.65 200.35 145.81 202.26 C 150.63 206.40 154.64 211.36 159.16 215.82 C 166.97 213.59 174.20 209.78 181.26 205.83 C 172.02 196.22 162.42 186.97 153.05 177.50 C 136.01 185.02 115.95 185.03 98.92 177.49 C 89.61 186.99 79.80 196.04 70.85 205.86 Z" />
</g>
<g id="#f7a10eff">
<path fill="#f7a10e" opacity="1.00" d=" M 103.94 11.73 C 111.22 10.40 118.60 9.53 126.00 9.33 C 133.39 9.56 140.77 10.36 148.03 11.76 C 144.63 16.11 140.19 19.51 136.63 23.73 C 137.57 27.04 138.33 30.40 138.93 33.80 C 140.83 33.33 142.33 32.04 143.65 30.66 C 148.80 25.41 154.09 20.30 159.20 15.00 C 167.03 17.15 174.27 21.02 181.32 24.97 C 172.38 34.16 163.09 43.00 154.12 52.16 C 153.33 52.97 152.42 53.10 151.38 52.54 C 134.77 45.94 115.24 45.77 98.98 53.46 C 91.05 45.26 82.88 37.28 74.94 29.09 C 73.90 27.60 71.00 26.61 71.35 24.64 C 78.10 20.68 85.20 17.06 92.78 15.01 C 97.72 20.10 102.81 25.05 107.78 30.11 C 109.30 31.62 110.82 33.34 113.05 33.71 C 113.71 30.18 114.66 26.70 114.98 23.12 C 111.32 19.31 107.17 15.93 103.94 11.73 Z" />
<path fill="#f7a10e" opacity="1.00" d=" M 25.37 82.03 C 28.03 74.40 31.18 66.85 35.71 60.12 C 44.99 69.52 54.29 78.89 63.73 88.12 C 56.51 105.22 56.15 125.30 63.76 142.33 C 59.81 146.22 55.95 150.19 52.28 154.35 C 46.43 159.52 40.92 165.07 35.55 170.73 C 31.48 163.78 27.89 156.52 25.41 148.83 C 31.64 141.94 39.05 136.10 44.66 128.69 C 41.16 127.49 37.49 126.91 33.87 126.20 C 30.11 130.07 26.16 133.73 22.53 137.72 C 19.15 123.15 19.09 107.69 22.54 93.13 C 26.18 97.06 30.08 100.74 33.83 104.56 C 37.31 103.86 40.78 103.14 44.24 102.37 C 43.76 101.07 43.27 99.73 42.20 98.79 C 36.60 93.20 31.01 87.59 25.37 82.03 Z" />
<path fill="#f7a10e" opacity="1.00" d=" M 70.85 205.86 C 79.80 196.04 89.61 186.99 98.92 177.49 C 115.95 185.03 136.01 185.02 153.05 177.50 C 162.42 186.97 172.02 196.22 181.26 205.83 C 174.20 209.78 166.97 213.59 159.16 215.82 C 154.64 211.36 150.63 206.40 145.81 202.26 C 143.65 200.35 141.92 197.66 138.94 197.00 C 138.47 200.57 136.79 204.13 137.28 207.74 C 140.69 211.67 144.86 214.91 148.11 219.00 C 133.50 221.98 118.40 221.95 103.80 219.00 C 107.25 214.70 111.45 211.09 115.35 207.21 C 114.50 203.82 113.77 200.40 112.89 197.01 C 110.30 197.73 108.50 199.81 106.67 201.63 C 102.03 206.37 97.24 210.97 92.70 215.81 C 85.00 213.53 77.78 209.87 70.85 205.86 Z" />
</g>
<g id="#4f3e31ff">
<path fill="#4f3e31" opacity="1.00" d=" M 41.25 51.87 C 47.14 43.91 54.29 36.95 62.11 30.91 C 71.74 39.52 80.47 49.11 89.77 58.08 C 81.42 63.48 74.09 70.58 68.81 79.04 C 59.34 70.29 50.55 60.80 41.25 51.87 Z" />
<path fill="#4f3e31" opacity="1.00" d=" M 189.26 30.92 C 197.73 36.31 204.62 43.93 210.69 51.85 C 201.38 60.78 192.60 70.28 183.11 79.01 C 177.84 70.57 170.52 63.47 162.17 58.08 C 171.20 49.03 180.36 40.10 189.26 30.92 Z" />
<path fill="#4f3e31" opacity="1.00" d=" M 66.09 154.07 C 66.95 153.23 67.89 152.49 68.85 151.78 C 74.09 160.23 81.46 167.18 89.68 172.70 C 80.35 181.64 71.49 191.06 62.11 199.95 C 54.30 193.85 47.21 186.85 41.20 178.97 C 49.48 170.65 57.84 162.42 66.09 154.07 Z" />
<path fill="#4f3e31" opacity="1.00" d=" M 183.21 151.62 C 192.54 160.58 201.54 169.88 210.73 178.98 C 205.17 186.26 198.72 192.88 191.53 198.57 C 190.80 199.06 189.69 200.43 188.88 199.23 C 181.98 192.43 175.20 185.51 168.29 178.72 C 166.24 176.74 164.55 174.44 162.96 172.10 C 171.09 166.87 178.05 159.80 183.21 151.62 Z" />
</g>
</svg>

<?xml version="1.0" encoding="utf-8"?>
<!-- Generator: Adobe Illustrator 26.0.3, SVG Export Plug-In . SVG Version: 6.00 Build 0)  -->
<svg version="1.1" id="Layer_1" xmlns="http://www.w3.org/2000/svg" xmlns:xlink="http://www.w3.org/1999/xlink" x="0px" y="0px"
	 viewBox="0 0 250 228" style="enable-background:new 0 0 250 228;" xml:space="preserve">
<style type="text/css">
	.st0{fill:#F7A10E;}
	.st1{fill:#4F3E31;}
</style>
<g id="_x23_f7a10eff">
	<path class="st0" d="M103.9,11.7c7.3-1.3,14.7-2.2,22.1-2.4c7.4,0.2,14.8,1,22,2.4c-3.4,4.4-7.8,7.8-11.4,12
		c0.9,3.3,1.7,6.7,2.3,10.1c1.9-0.5,3.4-1.8,4.7-3.1c5.2-5.2,10.4-10.4,15.6-15.7c7.8,2.1,15.1,6,22.1,10
		c-8.9,9.2-18.2,18-27.2,27.2c-0.8,0.8-1.7,0.9-2.7,0.4c-16.6-6.6-36.1-6.8-52.4,0.9c-7.9-8.2-16.1-16.2-24-24.4
		c-1-1.5-3.9-2.5-3.6-4.5c6.8-4,13.8-7.6,21.4-9.6c4.9,5.1,10,10,15,15.1c1.5,1.5,3,3.2,5.3,3.6c0.7-3.5,1.6-7,1.9-10.6
		C111.3,19.3,107.2,15.9,103.9,11.7z"/>
	<path class="st0" d="M25.4,82c2.7-7.6,5.8-15.2,10.3-21.9c9.3,9.4,18.6,18.8,28,28c-7.2,17.1-7.6,37.2,0,54.2
		c-3.9,3.9-7.8,7.9-11.5,12c-5.8,5.2-11.4,10.7-16.7,16.4c-4.1-6.9-7.7-14.2-10.1-21.9c6.2-6.9,13.6-12.7,19.2-20.1
		c-3.5-1.2-7.2-1.8-10.8-2.5c-3.8,3.9-7.7,7.5-11.3,11.5c-3.4-14.6-3.4-30,0-44.6c3.6,3.9,7.5,7.6,11.3,11.4
		c3.5-0.7,6.9-1.4,10.4-2.2c-0.5-1.3-1-2.6-2-3.6C36.6,93.2,31,87.6,25.4,82z"/>
	<path class="st0" d="M70.8,205.9c9-9.8,18.8-18.9,28.1-28.4c17,7.5,37.1,7.5,54.1,0c9.4,9.5,19,18.7,28.2,28.3
		c-7.1,3.9-14.3,7.8-22.1,10c-4.5-4.5-8.5-9.4-13.4-13.6c-2.2-1.9-3.9-4.6-6.9-5.3c-0.5,3.6-2.2,7.1-1.7,10.7
		c3.4,3.9,7.6,7.2,10.8,11.3c-14.6,3-29.7,2.9-44.3,0c3.4-4.3,7.6-7.9,11.5-11.8c-0.8-3.4-1.6-6.8-2.5-10.2
		c-2.6,0.7-4.4,2.8-6.2,4.6c-4.6,4.7-9.4,9.3-14,14.2C85,213.5,77.8,209.9,70.8,205.9z"/>
</g>
<g id="_x23_4f3e31ff">
	<path class="st1" d="M41.2,51.9c5.9-8,13-14.9,20.9-21c9.6,8.6,18.4,18.2,27.7,27.2c-8.3,5.4-15.7,12.5-21,21
		C59.3,70.3,50.5,60.8,41.2,51.9z"/>
	<path class="st1" d="M189.3,30.9c8.5,5.4,15.4,13,21.4,20.9c-9.3,8.9-18.1,18.4-27.6,27.2c-5.3-8.4-12.6-15.5-20.9-20.9
		C171.2,49,180.4,40.1,189.3,30.9z"/>
	<path class="st1" d="M66.1,154.1c0.9-0.8,1.8-1.6,2.8-2.3c5.2,8.4,12.6,15.4,20.8,20.9c-9.3,8.9-18.2,18.4-27.6,27.2
		c-7.8-6.1-14.9-13.1-20.9-21C49.5,170.6,57.8,162.4,66.1,154.1z"/>
	<path class="st1" d="M183.2,151.6c9.3,9,18.3,18.3,27.5,27.4c-5.6,7.3-12,13.9-19.2,19.6c-0.7,0.5-1.8,1.9-2.6,0.7
		c-6.9-6.8-13.7-13.7-20.6-20.5c-2-2-3.7-4.3-5.3-6.6C171.1,166.9,178.1,159.8,183.2,151.6z"/>
</g>
</svg>
